X:41
T: ICH BIN DER FUERST VON THOREN
N: F0125
O: Europa, Mitteleuropa, Deutschland
R: Spiel -, Scherz - Lied
M: 3/4
L: 1/16
K: G
D2 | D3GG6A2 | G3FF4z2
D2 | F2A2d6F2 | A3GG4z2
D2 | G2B2d4B2G2 | F3Ac4z2
B2 | c2A2d6FF | A3GG4z2

